svg/color/ieth.svg

<?xml version="1.0" encoding="UTF-8" ?>
<!DOCTYPE svg PUBLIC "-//W3C//DTD SVG 1.1//EN" "http://www.w3.org/Graphics/SVG/1.1/DTD/svg11.dtd">
<svg width="250pt" height="250pt" viewBox="0 0 250 250" version="1.1" xmlns="http://www.w3.org/2000/svg">
<g id="#ffffffff">
<path fill="#ffffff" opacity="1.00" d=" M 0.00 0.00 L 250.00 0.00 L 250.00 250.00 L 0.00 250.00 L 0.00 0.00 M 129.48 26.52 C 118.46 37.23 113.49 52.81 113.18 67.91 C 102.18 65.50 91.40 61.35 80.00 61.43 C 70.31 61.29 60.63 64.26 52.60 69.66 C 39.56 78.56 30.88 92.89 27.03 108.04 C 22.64 125.69 23.84 144.34 27.95 161.93 C 31.85 178.78 39.55 194.51 48.85 209.00 C 54.52 217.77 61.42 225.99 70.20 231.79 C 76.02 235.68 83.16 237.62 90.14 236.63 C 101.08 234.93 110.84 228.45 122.02 227.84 C 136.86 227.67 149.95 238.75 165.02 235.97 C 177.91 233.77 187.09 223.44 194.50 213.47 C 203.72 200.63 211.29 186.32 215.14 170.92 C 201.63 168.60 192.02 157.12 187.29 144.92 C 182.08 131.44 184.29 115.43 192.73 103.74 C 197.51 97.33 203.79 92.27 209.52 86.76 C 200.72 74.51 188.08 64.16 172.90 61.50 C 163.73 59.55 154.36 60.99 145.33 62.91 C 151.38 56.84 156.76 49.97 160.38 42.17 C 164.80 32.70 166.11 21.70 163.69 11.52 C 151.07 12.68 138.55 17.47 129.48 26.52 Z" />
<path fill="#ffffff" opacity="1.00" d=" M 135.01 33.00 C 140.97 27.14 148.74 23.43 156.73 21.25 C 156.46 33.10 150.98 44.42 142.99 53.00 C 137.51 58.79 130.18 63.35 122.04 63.70 C 122.71 52.43 126.86 41.02 135.01 33.00 Z" />
<path fill="#ffffff" opacity="1.00" d=" M 117.02 77.61 C 132.88 78.05 147.28 69.74 162.95 68.81 C 176.15 69.37 189.42 75.15 197.60 85.77 C 187.49 94.26 179.26 105.65 176.87 118.85 C 174.48 134.00 177.81 150.41 187.45 162.56 C 192.02 168.49 198.03 173.13 204.43 176.95 C 201.36 185.23 197.49 193.22 192.62 200.59 C 187.91 207.73 182.98 214.85 176.72 220.75 C 172.47 224.69 167.02 227.93 161.04 227.78 C 146.81 227.63 134.33 217.32 119.85 219.50 C 109.32 221.28 99.46 225.70 89.05 228.01 C 83.22 229.16 77.47 226.50 72.81 223.20 C 63.40 216.45 57.10 206.46 51.28 196.66 C 38.75 175.11 31.13 150.04 33.20 124.95 C 33.90 109.65 39.55 94.28 50.04 82.97 C 60.12 72.32 75.78 67.99 90.02 71.08 C 99.28 72.31 107.51 77.94 117.02 77.61 M 122.99 81.77 C 122.45 93.17 122.90 104.59 122.79 116.00 C 122.94 120.79 122.32 125.65 123.43 130.36 C 134.60 135.71 145.93 140.69 157.17 145.88 C 158.91 146.76 160.84 147.05 162.75 147.35 C 152.30 128.90 141.00 110.93 130.23 92.67 C 127.80 89.05 126.20 84.81 122.99 81.77 M 81.48 146.78 C 90.09 144.01 98.14 139.73 106.52 136.35 C 110.60 134.47 114.85 133.00 118.85 130.96 C 121.15 129.90 120.37 127.01 120.55 125.00 C 120.28 110.55 120.82 96.08 120.26 81.64 C 107.12 103.22 94.25 124.98 81.48 146.78 M 81.89 149.17 C 81.42 149.46 78.86 150.37 80.89 150.89 C 94.00 158.54 107.14 166.16 120.28 173.77 C 120.32 159.99 120.30 146.21 120.29 132.43 C 107.49 138.02 94.71 143.63 81.89 149.17 M 122.91 174.15 C 126.54 172.49 129.85 170.27 133.27 168.24 C 143.22 162.06 153.57 156.49 163.26 149.93 C 149.94 143.99 136.51 138.30 123.24 132.25 C 122.47 146.18 122.99 160.18 122.91 174.15 M 80.28 158.31 C 92.22 175.75 104.74 192.79 116.82 210.13 C 117.81 211.65 119.08 212.95 120.30 214.29 C 120.70 204.19 120.46 194.07 120.43 183.97 C 120.83 181.56 118.53 180.29 116.80 179.23 C 106.03 173.04 95.29 166.80 84.64 160.41 C 83.24 159.60 81.74 158.99 80.28 158.31 M 157.78 160.82 C 147.05 167.09 136.38 173.45 125.60 179.63 C 123.97 180.44 122.44 181.90 122.75 183.91 C 122.84 193.96 122.64 204.01 122.91 214.05 C 128.30 208.57 132.53 202.10 137.15 195.99 C 145.74 183.82 154.71 171.84 162.03 158.85 C 160.59 159.45 159.14 160.05 157.78 160.82 Z" />
</g>
<g id="#00aeefff">
<path fill="#00aeef" opacity="1.00" d=" M 129.48 26.52 C 138.55 17.47 151.07 12.68 163.69 11.52 C 166.11 21.70 164.80 32.70 160.38 42.17 C 156.76 49.97 151.38 56.84 145.33 62.91 C 154.36 60.99 163.73 59.55 172.90 61.50 C 188.08 64.16 200.72 74.51 209.52 86.76 C 203.79 92.27 197.51 97.33 192.73 103.74 C 184.29 115.43 182.08 131.44 187.29 144.92 C 192.02 157.12 201.63 168.60 215.14 170.92 C 211.29 186.32 203.72 200.63 194.50 213.47 C 187.09 223.44 177.91 233.77 165.02 235.97 C 149.95 238.75 136.86 227.67 122.02 227.84 C 110.84 228.45 101.08 234.93 90.14 236.63 C 83.16 237.62 76.02 235.68 70.20 231.79 C 61.42 225.99 54.52 217.77 48.85 209.00 C 39.55 194.51 31.85 178.78 27.95 161.93 C 23.84 144.34 22.64 125.69 27.03 108.04 C 30.88 92.89 39.56 78.56 52.60 69.66 C 60.63 64.26 70.31 61.29 80.00 61.43 C 91.40 61.35 102.18 65.50 113.18 67.91 C 113.49 52.81 118.46 37.23 129.48 26.52 M 135.01 33.00 C 126.86 41.02 122.71 52.43 122.04 63.70 C 130.18 63.35 137.51 58.79 142.99 53.00 C 150.98 44.42 156.46 33.10 156.73 21.25 C 148.74 23.43 140.97 27.14 135.01 33.00 M 117.02 77.61 C 107.51 77.94 99.28 72.31 90.02 71.08 C 75.78 67.99 60.12 72.32 50.04 82.97 C 39.55 94.28 33.90 109.65 33.20 124.95 C 31.13 150.04 38.75 175.11 51.28 196.66 C 57.10 206.46 63.40 216.45 72.81 223.20 C 77.47 226.50 83.22 229.16 89.05 228.01 C 99.46 225.70 109.32 221.28 119.85 219.50 C 134.33 217.32 146.81 227.63 161.04 227.78 C 167.02 227.93 172.47 224.69 176.72 220.75 C 182.98 214.85 187.91 207.73 192.62 200.59 C 197.49 193.22 201.36 185.23 204.43 176.95 C 198.03 173.13 192.02 168.49 187.45 162.56 C 177.81 150.41 174.48 134.00 176.87 118.85 C 179.26 105.65 187.49 94.26 197.60 85.77 C 189.42 75.15 176.15 69.37 162.95 68.81 C 147.28 69.74 132.88 78.05 117.02 77.61 Z" />
<path fill="#00aeef" opacity="1.00" d=" M 122.99 81.77 C 126.20 84.81 127.80 89.05 130.23 92.67 C 141.00 110.93 152.30 128.90 162.75 147.35 C 160.84 147.05 158.91 146.76 157.17 145.88 C 145.93 140.69 134.60 135.71 123.43 130.36 C 122.32 125.65 122.94 120.79 122.79 116.00 C 122.90 104.59 122.45 93.17 122.99 81.77 Z" />
<path fill="#00aeef" opacity="1.00" d=" M 81.48 146.78 C 94.25 124.98 107.12 103.22 120.26 81.64 C 120.82 96.08 120.28 110.55 120.55 125.00 C 120.37 127.01 121.15 129.90 118.85 130.96 C 114.85 133.00 110.60 134.47 106.52 136.35 C 98.14 139.73 90.09 144.01 81.48 146.78 Z" />
<path fill="#00aeef" opacity="1.00" d=" M 81.89 149.17 C 94.71 143.63 107.49 138.02 120.29 132.43 C 120.30 146.21 120.32 159.99 120.28 173.77 C 107.14 166.16 94.00 158.54 80.89 150.89 C 78.86 150.37 81.42 149.46 81.89 149.17 Z" />
<path fill="#00aeef" opacity="1.00" d=" M 122.91 174.15 C 122.99 160.18 122.47 146.18 123.24 132.25 C 136.51 138.30 149.94 143.99 163.26 149.93 C 153.57 156.49 143.22 162.06 133.27 168.24 C 129.85 170.27 126.54 172.49 122.91 174.15 Z" />
<path fill="#00aeef" opacity="1.00" d=" M 80.28 158.31 C 81.74 158.99 83.24 159.60 84.64 160.41 C 95.29 166.80 106.03 173.04 116.80 179.23 C 118.53 180.29 120.83 181.56 120.43 183.97 C 120.46 194.07 120.70 204.19 120.30 214.29 C 119.08 212.95 117.81 211.65 116.82 210.13 C 104.74 192.79 92.22 175.75 80.28 158.31 Z" />
<path fill="#00aeef" opacity="1.00" d=" M 157.78 160.82 C 159.14 160.05 160.59 159.45 162.03 158.85 C 154.71 171.84 145.74 183.82 137.15 195.99 C 132.53 202.10 128.30 208.57 122.91 214.05 C 122.64 204.01 122.84 193.96 122.75 183.91 C 122.44 181.90 123.97 180.44 125.60 179.63 C 136.38 173.45 147.05 167.09 157.78 160.82 Z" />
</g>
</svg>

<?xml version="1.0" encoding="utf-8"?>
<!-- Generator: Adobe Illustrator 26.0.3, SVG Export Plug-In . SVG Version: 6.00 Build 0)  -->
<svg version="1.1" id="Layer_1" xmlns="http://www.w3.org/2000/svg" xmlns:xlink="http://www.w3.org/1999/xlink" x="0px" y="0px"
	 viewBox="0 0 250 250" style="enable-background:new 0 0 250 250;" xml:space="preserve">
<style type="text/css">
	.st0{fill:#FFFFFF;}
	.st1{fill:#00AEEF;}
</style>
<g id="_x23_ffffffff">
	<path class="st0" d="M135,33c6-5.9,13.7-9.6,21.7-11.8C156.5,33.1,151,44.4,143,53c-5.5,5.8-12.8,10.3-21,10.7
		C122.7,52.4,126.9,41,135,33z"/>
	<path class="st0" d="M117,77.6c15.9,0.4,30.3-7.9,45.9-8.8c13.2,0.6,26.5,6.3,34.7,17c-10.1,8.5-18.3,19.9-20.7,33.1
		c-2.4,15.2,0.9,31.6,10.6,43.7c4.6,5.9,10.6,10.6,17,14.4c-3.1,8.3-6.9,16.3-11.8,23.6c-4.7,7.1-9.6,14.3-15.9,20.2
		c-4.2,3.9-9.7,7.2-15.7,7c-14.2-0.1-26.7-10.5-41.2-8.3c-10.5,1.8-20.4,6.2-30.8,8.5c-5.8,1.2-11.6-1.5-16.2-4.8
		c-9.4-6.8-15.7-16.7-21.5-26.5c-12.5-21.6-20.1-46.6-18.1-71.7c0.7-15.3,6.3-30.7,16.8-42c10.1-10.7,25.7-15,40-11.9
		C99.3,72.3,107.5,77.9,117,77.6 M123,81.8c-0.5,11.4-0.1,22.8-0.2,34.2c0.2,4.8-0.5,9.7,0.6,14.4c11.2,5.4,22.5,10.3,33.7,15.5
		c1.7,0.9,3.7,1.2,5.6,1.5c-10.4-18.5-21.8-36.4-32.5-54.7C127.8,89.1,126.2,84.8,123,81.8 M81.5,146.8c8.6-2.8,16.7-7.1,25-10.4
		c4.1-1.9,8.3-3.4,12.3-5.4c2.3-1.1,1.5-4,1.7-6c-0.3-14.4,0.3-28.9-0.3-43.4C107.1,103.2,94.2,125,81.5,146.8 M81.9,149.2
		c-0.5,0.3-3,1.2-1,1.7c13.1,7.6,26.2,15.3,39.4,22.9c0-13.8,0-27.6,0-41.3C107.5,138,94.7,143.6,81.9,149.2 M122.9,174.1
		c3.6-1.7,6.9-3.9,10.4-5.9c9.9-6.2,20.3-11.8,30-18.3c-13.3-5.9-26.8-11.6-40-17.7C122.5,146.2,123,160.2,122.9,174.1 M80.3,158.3
		c11.9,17.4,24.5,34.5,36.5,51.8c1,1.5,2.3,2.8,3.5,4.2c0.4-10.1,0.2-20.2,0.1-30.3c0.4-2.4-1.9-3.7-3.6-4.7
		c-10.8-6.2-21.5-12.4-32.2-18.8C83.2,159.6,81.7,159,80.3,158.3 M157.8,160.8c-10.7,6.3-21.4,12.6-32.2,18.8
		c-1.6,0.8-3.2,2.3-2.8,4.3c0.1,10.1-0.1,20.1,0.2,30.1c5.4-5.5,9.6-11.9,14.2-18.1c8.6-12.2,17.6-24.2,24.9-37.1
		C160.6,159.4,159.1,160.1,157.8,160.8z"/>
</g>
<g id="_x23_00aeefff">
	<path class="st1" d="M129.5,26.5c9.1-9.1,21.6-13.8,34.2-15c2.4,10.2,1.1,21.2-3.3,30.6c-3.6,7.8-9,14.7-15.1,20.7
		c9-1.9,18.4-3.4,27.6-1.4c15.2,2.7,27.8,13,36.6,25.3c-5.7,5.5-12,10.6-16.8,17c-8.4,11.7-10.6,27.7-5.4,41.2
		c4.7,12.2,14.3,23.7,27.9,26c-3.9,15.4-11.4,29.7-20.6,42.6c-7.4,10-16.6,20.3-29.5,22.5c-15.1,2.8-28.2-8.3-43-8.1
		c-11.2,0.6-20.9,7.1-31.9,8.8c-7,1-14.1-1-19.9-4.8c-8.8-5.8-15.7-14-21.3-22.8c-9.3-14.5-17-30.2-20.9-47.1
		c-4.1-17.6-5.3-36.2-0.9-53.9c3.8-15.2,12.5-29.5,25.6-38.4c8-5.4,17.7-8.4,27.4-8.2c11.4-0.1,22.2,4.1,33.2,6.5
		C113.5,52.8,118.5,37.2,129.5,26.5 M135,33c-8.1,8-12.3,19.4-13,30.7c8.1-0.4,15.5-4.9,21-10.7c8-8.6,13.5-19.9,13.7-31.8
		C148.7,23.4,141,27.1,135,33 M117,77.6c-9.5,0.3-17.7-5.3-27-6.5C75.8,68,60.1,72.3,50,83c-10.5,11.3-16.1,26.7-16.8,42
		c-2.1,25.1,5.5,50.2,18.1,71.7c5.8,9.8,12.1,19.8,21.5,26.5c4.7,3.3,10.4,6,16.2,4.8c10.4-2.3,20.3-6.7,30.8-8.5
		c14.5-2.2,27,8.1,41.2,8.3c6,0.1,11.4-3.1,15.7-7c6.3-5.9,11.2-13,15.9-20.2c4.9-7.4,8.7-15.4,11.8-23.6c-6.4-3.8-12.4-8.5-17-14.4
		c-9.6-12.1-13-28.6-10.6-43.7c2.4-13.2,10.6-24.6,20.7-33.1c-8.2-10.6-21.5-16.4-34.7-17C147.3,69.7,132.9,78.1,117,77.6z"/>
	<path class="st1" d="M123,81.8c3.2,3,4.8,7.3,7.2,10.9c10.8,18.3,22.1,36.2,32.5,54.7c-1.9-0.3-3.8-0.6-5.6-1.5
		c-11.2-5.2-22.6-10.2-33.7-15.5c-1.1-4.7-0.5-9.6-0.6-14.4C122.9,104.6,122.4,93.2,123,81.8z"/>
	<path class="st1" d="M81.5,146.8c12.8-21.8,25.6-43.6,38.8-65.1c0.6,14.4,0,28.9,0.3,43.4c-0.2,2,0.6,4.9-1.7,6
		c-4,2-8.2,3.5-12.3,5.4C98.1,139.7,90.1,144,81.5,146.8z"/>
	<path class="st1" d="M81.9,149.2c12.8-5.5,25.6-11.1,38.4-16.7c0,13.8,0,27.6,0,41.3c-13.1-7.6-26.3-15.2-39.4-22.9
		C78.9,150.4,81.4,149.5,81.9,149.2z"/>
	<path class="st1" d="M122.9,174.1c0.1-14-0.4-28,0.3-41.9c13.3,6.1,26.7,11.7,40,17.7c-9.7,6.6-20,12.1-30,18.3
		C129.9,170.3,126.5,172.5,122.9,174.1z"/>
	<path class="st1" d="M80.3,158.3c1.5,0.7,3,1.3,4.4,2.1c10.7,6.4,21.4,12.6,32.2,18.8c1.7,1.1,4,2.3,3.6,4.7
		c0,10.1,0.3,20.2-0.1,30.3c-1.2-1.3-2.5-2.6-3.5-4.2C104.7,192.8,92.2,175.8,80.3,158.3z"/>
	<path class="st1" d="M157.8,160.8c1.4-0.8,2.8-1.4,4.2-2c-7.3,13-16.3,25-24.9,37.1c-4.6,6.1-8.8,12.6-14.2,18.1
		c-0.3-10-0.1-20.1-0.2-30.1c-0.3-2,1.2-3.5,2.8-4.3C136.4,173.4,147.1,167.1,157.8,160.8z"/>
</g>
</svg>
